X: 38532
T: Stephanie Wilkerson's
R: jig
M: 6/8
K: Dmajor
dAE F2B|AFE EDB,|A,DF BAG|Fdf ede|
dAE F2B|AFE EDB,|DEF EAE|FED D3||
agf ede|fdB BAF|ABd ede|fga e3|
[1 agf ede|fdB BAF|Bc/d/B BAF|EDB, D3:|
[2 AfA gAa|edB BAF|Bc/d/B BAF|EDB, D3||

